src/assets/svg/icons/fa/nuevos/classic/light/watch-apple classic light.svg

<svg xmlns="http://www.w3.org/2000/svg" viewBox="0 0 384 512"><!--! Font Awesome Pro 6.4.0 by @fontawesome - https://fontawesome.com License - https://fontawesome.com/license (Commercial License) Copyright 2023 Fonticons, Inc. --><path d="M96 48V64H288V48c0-8.8-7.2-16-16-16H112c-8.8 0-16 7.2-16 16zM64 65.6V48C64 21.5 85.5 0 112 0H272c26.5 0 48 21.5 48 48V65.6c36.5 7.4 64 39.7 64 78.4V368c0 38.7-27.5 71-64 78.4V464c0 26.5-21.5 48-48 48l-160 0c-26.5 0-48-21.5-48-48l0-17.6C27.5 439 0 406.7 0 368V144c0-38.7 27.5-71 64-78.4zM96 464c0 8.8 7.2 16 16 16l160 0c8.8 0 16-7.2 16-16V448H96v16zM80 96c-26.5 0-48 21.5-48 48V368c0 26.5 21.5 48 48 48H304c26.5 0 48-21.5 48-48V144c0-26.5-21.5-48-48-48H80zM192 232a24 24 0 1 1 0 48 24 24 0 1 1 0-48zm16 96a24 24 0 1 1 48 0 24 24 0 1 1 -48 0zm-56-24a24 24 0 1 1 0 48 24 24 0 1 1 0-48zm56-120a24 24 0 1 1 48 0 24 24 0 1 1 -48 0zm-56-24a24 24 0 1 1 0 48 24 24 0 1 1 0-48zM96 256a24 24 0 1 1 48 0 24 24 0 1 1 -48 0zm168-24a24 24 0 1 1 0 48 24 24 0 1 1 0-48z"/></svg>

<svg xmlns="http://www.w3.org/2000/svg" viewBox="0 0 384 512"><path d="M168 256C168 242.7 178.7 232 192 232C205.3 232 216 242.7 216 256C216 269.3 205.3 280 192 280C178.7 280 168 269.3 168 256zM256 328C256 341.3 245.3 352 232 352C218.7 352 208 341.3 208 328C208 314.7 218.7 304 232 304C245.3 304 256 314.7 256 328zM128 328C128 314.7 138.7 304 152 304C165.3 304 176 314.7 176 328C176 341.3 165.3 352 152 352C138.7 352 128 341.3 128 328zM256 184C256 197.3 245.3 208 232 208C218.7 208 208 197.3 208 184C208 170.7 218.7 160 232 160C245.3 160 256 170.7 256 184zM128 184C128 170.7 138.7 160 152 160C165.3 160 176 170.7 176 184C176 197.3 165.3 208 152 208C138.7 208 128 197.3 128 184zM144 256C144 269.3 133.3 280 120 280C106.7 280 96 269.3 96 256C96 242.7 106.7 232 120 232C133.3 232 144 242.7 144 256zM240 256C240 242.7 250.7 232 264 232C277.3 232 288 242.7 288 256C288 269.3 277.3 280 264 280C250.7 280 240 269.3 240 256zM64 65.6V48C64 21.49 85.49 0 112 0H272C298.5 0 320 21.49 320 48V65.6C356.5 73.01 384 105.3 384 144V368C384 406.7 356.5 438.1 320 446.4V464C320 490.5 298.5 512 272 512H112C85.49 512 64 490.5 64 464V446.4C27.48 438.1 0 406.7 0 368V144C0 105.3 27.48 73.01 64 65.6zM96 64H288V48C288 39.16 280.8 32 272 32H112C103.2 32 96 39.16 96 48V64zM112 480H272C280.8 480 288 472.8 288 464V448H96V464C96 472.8 103.2 480 112 480zM32 144V368C32 394.5 53.49 416 80 416H304C330.5 416 352 394.5 352 368V144C352 117.5 330.5 96 304 96H80C53.49 96 32 117.5 32 144z"/></svg>
